X:17202
T:The Searching Reel
R:Reel
S:Mark Crickard
H:
N:
D:The Hurricane
Z:Adrian Scahill
M:4/4
L:1/8
K:G
eBeB dBAB|EGBG AFDF|E3B dBAB|dAFD FAdf:||\
eAA2 GAFA|EAA2 B2AG|EFGE FGAF|1 GABG FAgf:|2 GABG ABde||\
dffe f2df|egfg egfg|faga faga|bagf edBc:||
